X: 11751
T: Elena's
R: reel
M: 4/4
K: Dmajor
cdcB ABcd|eA~A2 dG~G2|cdcB ABcd|eAAG A4|
cdcB ABcd|eA~A2 dG~G2|cdcB ABcd|eAAG A4||
AGAB d2cB|cA~A2 BG~G2|AGAB d2cB|cGGF G4|
AGAB d2cB|cA~A2 BG~G2|AGAB d2ge|dcBc A4|

